X:1
T:33. Green sleeves
C:trad
Q:&quot;andante&quot;
L:1/8
M:6/8
K:Ador
A | c2d e>fe | d2B G>AB | c2A A>GA | B2GE2 |
A | c2d e>fe | d2B G>AB |c>BA ^G>FG | A3-A2 :|
z | g2g gfe | d2B G>AB | c2A A>GA | B6 |
g2g gfe | d2B G>AB | c>BA ^G>FG | A3-A2 :|
